**kern	**kern	**kern	**kern
*MM60	*MM60	*MM60	*MM60
*k[b-e-]	*k[b-e-]	*k[b-e-]	*k[b-e-]
*M4/4	*M4/4	*M4/4	*M4/4
*tb32	*tb32	*tb32	*tb32
=1	=1	=1	=1
1r	1r	1r	4r
.	.	.	8r
.	.	.	8dd
.	.	.	16b-
.	.	.	16cc
.	.	.	16a
.	.	.	16b-
.	.	.	8g
.	.	.	8gg
=2	=2	=2	=2
1r	1r	1r	16ff#
.	.	.	16gg
.	.	.	16ee
.	.	.	16ff#
.	.	.	8dd
.	.	.	16gg
.	.	.	16dd
.	.	.	8ee-
.	.	.	8cc
.	.	.	8f
.	.	.	8ff
=3	=3	=3	=3
1r	1r	1r	16dd
.	.	.	16ee-
.	.	.	16cc
.	.	.	16dd
.	.	.	8b-
.	.	.	16ee-
.	.	.	16b-
.	.	.	8cc
.	.	.	8a
.	.	.	8d
.	.	.	8dd
=4	=4	=4	=4
1r	1r	4r	16b-
.	.	.	16cc
.	.	.	16a
.	.	.	16b-
.	.	8r	16g
.	.	.	16a
.	.	8g	16b-
.	.	.	16cc
.	.	16f	8dd
.	.	16g	.
.	.	16e	8ee
.	.	16f	.
.	.	8d	16ff
.	.	.	16gg
.	.	8dd	16ff
.	.	.	16gg
=5	=5	=5	=5
1r	1r	16cc#	8aa
.	.	16dd	.
.	.	16b	8ee
.	.	16cc#	.
.	.	8a	2ff
.	.	16dd	.
.	.	16a	.
.	.	8b-	.
.	.	8g	.
.	.	8c	[4ee
.	.	8cc	.
=6	=6	=6	=6
1r	1r	16a	4ee]
.	.	16b-	.
.	.	16g	.
.	.	16a	.
.	.	8f	2dd
.	.	16b-	.
.	.	16f	.
.	.	8g	.
.	.	8e	.
.	.	8A	4cc#
.	.	8a	.
=7	=7	=7	=7
1r	1r	16f	4dd
.	.	16g	.
.	.	16e	.
.	.	16f	.
.	.	16d	8r
.	.	16e	.
.	.	16f	8dd
.	.	16g	.
.	.	8a	16cc
.	.	.	16dd
.	.	8g	16b-
.	.	.	16cc
.	.	8f#	16a
.	.	.	16b-
.	.	8d	16cc
.	.	.	16dd
=8	=8	=8	=8
1r	1r	8g	16b-
.	.	.	16cc
.	.	8f	16a
.	.	.	16b-
.	.	8e-	16g
.	.	.	16a
.	.	8d	16b-
.	.	.	16cc
.	.	8c	16a
.	.	.	16b-
.	.	8e-	16g
.	.	.	16a
.	.	8d	16f#
.	.	.	16a
.	.	8e	16g
.	.	.	16b-
=9	=9	=9	=9
1r	2r	8f#	16a
.	.	.	16cc
.	.	8g	16b-
.	.	.	16dd
.	.	8a	16cc
.	.	.	16ee-
.	.	8b-	16dd
.	.	.	16ff
.	4r	8.cc	16ee
.	.	.	16ff#
.	.	.	[8gg
.	.	16b-	.
.	8r	8.a	16gg]
.	.	.	16gg
.	8d	.	8ff#
.	.	16a	.
=10	=10	=10	=10
1r	16B-	8g	4gg
.	16c	.	.
.	16A	8a	.
.	16B-	.	.
.	8G	16b-	8r
.	.	16cc	.
.	8g	16b-	8bb-
.	.	16cc	.
.	16f#	8dd	8aa
.	16g	.	.
.	16e	8a	8gg
.	16f#	.	.
.	8d	[4b-	8ff#
.	16g	.	8gg
.	16d	.	.
=11	=11	=11	=11
1r	8e-	4b-]	16cc
.	.	.	16dd
.	8c	.	[8ee-
.	8F	2a	16ee-]
.	.	.	16ee-
.	8f	.	16dd
.	.	.	16cc
.	16d	.	16b-
.	16e-	.	16cc
.	16c	.	[8dd
.	16d	.	.
.	8B-	[4g	16dd]
.	.	.	16dd
.	16e-	.	16cc
.	16B-	.	16b-
=12	=12	=12	=12
1r	8c	4g]	16a
.	.	.	16b-
.	8A	.	[8cc
.	8D	4f#	16cc]
.	.	.	16cc
.	8d	.	16b-
.	.	.	16a
.	16B-	4g	8g
.	16c	.	.
.	16A	.	8dd
.	16B-	.	.
.	16G	8r	[4gg
.	16A	.	.
.	16B-	8dd	.
.	16c	.	.
=13	=13	=13	=13
1r	16d	4a	8gg]
.	16e-	.	.
.	16c	.	8ff
.	16d	.	.
.	16B-	8r	[4bb-
.	16c	.	.
.	16d	8ff	.
.	16e-	.	.
.	16f	4cc	8bb-]
.	16g	.	.
.	16e-	.	[8aa
.	16f	.	.
.	16d	4b-	8aa]
.	16f	.	.
.	16e-	.	[8gg
.	16d	.	.
=14	=14	=14	=14
2r	16c	4.a	8gg]
.	16d	.	.
.	16B-	.	8gg
.	16c	.	.
.	16A	.	4ff#
.	16B-	.	.
.	16c	8a	.
.	16d	.	.
4r	16B-	8g	4gg
.	16c	.	.
.	16A	8a	.
.	16B-	.	.
8r	16G	4b-	8r
.	16A	.	.
8G	16B-	.	16dd
.	16c	.	16ee
=15	=15	=15	=15
16F	8d	8a	8ff
16G	.	.	.
16E	8e	8cc#	8gg
16F	.	.	.
8D	16f	8dd	8aa
.	16g	.	.
8d	16f	8ff	8bb-
.	16g	.	.
16c#	8a	8ee	[4aa
16d	.	.	.
16B	8e	8dd	.
16c#	.	.	.
8A	[4f	8cc#	16aa]
.	.	.	16gg
16d	.	8dd	16ff
16A	.	.	16ee
=16	=16	=16	=16
8B-	4f]	16g	4dd
.	.	16a	.
8G	.	[8b-	.
8C	2e	16b-]	8r
.	.	16b-	.
8c	.	16a	8ee
.	.	16g	.
16A	.	16f	[4ff
16B-	.	16g	.
16G	.	[8a	.
16A	.	.	.
8F	[4d	16a]	16ff]
.	.	16a	16ff
16B-	.	16g	16gg
16F	.	16f	16aa
=17	=17	=17	=17
8G	4d]	16e	16bb-
.	.	16f	16aa
8E	.	[8g	16gg
.	.	.	16ff
8AA	4c#	16g]	8.ee
.	.	16g	.
8A	.	16f	.
.	.	16e	16dd
16F	4d	4a	4dd
16G	.	.	.
16E	.	.	.
16F	.	.	.
8D	16r	16r	4r
.	16f	16dd	.
8F	16e-	16cc	.
.	16f	16dd	.
=18	=18	=18	=18
4G	16d	16b-	1r
.	16e-	16cc	.
.	16c	16a	.
.	16d	16b-	.
16r	8B-	8g	.
16G	.	.	.
16F	8d	8b-	.
16G	.	.	.
16E-	4G	4cc	.
16F	.	.	.
16D	.	.	.
16E-	.	.	.
8C	16r	16r	.
.	16e-	16cc	.
8E-	16d	16b-	.
.	16e-	16cc	.
=19	=19	=19	=19
4F	16c	16a	1r
.	16d	16b-	.
.	16B-	16g	.
.	16c	16a	.
16r	8A	8f	.
16F	.	.	.
16E-	8c	8a	.
16F	.	.	.
16D	4F	4b-	.
16E-	.	.	.
16C	.	.	.
16D	.	.	.
8BB-	16r	16r	.
.	16d	16b-	.
8D	16c	16a	.
.	16d	16b-	.
=20	=20	=20	=20
8E-	16B-	[4g	1r
.	16d	.	.
8D	16c	.	.
.	16d	.	.
8C	[4e-	16g]	.
.	.	16b-	.
8BB-	.	16a	.
.	.	16b-	.
8AA	16e-]	[4cc	.
.	16g	.	.
8GG	16f#	.	.
.	16g	.	.
8FF#	16a	16cc]	.
.	16g	16b-	.
8DD	16a	16cc	.
.	16f#	16a	.
=21	=21	=21	=21
8GG	8g	16b-	2r
.	.	16dd	.
8BB-	8d	16g	.
.	.	16b-	.
8C	16c	16a	.
.	16e-	16cc	.
8D	16A	16f#	.
.	16c	16a	.
4GG	16B-	8g	4r
.	16d	.	.
.	16G	8b-	.
.	16B-	.	.
8r	16A	8c	8r
.	16c	.	.
8DD	16F#	8a	8dd
.	16A	.	.
=22	=22	=22	=22
8GG	4.G	8B-	16b-
.	.	.	16cc
8AA	.	8c	16a
.	.	.	16b-
8BB-	.	16d	8g
.	.	16dd	.
8C	8e-	16cc	8gg
.	.	16ee-	.
8D	8d	8a	16ff#
.	.	.	16gg
8AA	8c	8f#	16ee
.	.	.	16ff#
[4BB-	8B-	[4g	8dd
.	8G	.	16gg
.	.	.	16dd
=23	=23	=23	=23
4BB-]	16c	4g]	8ee-
.	16d	.	.
.	[8e-	.	8cc
2AA	16e-]	8r	8f
.	16e-	.	.
.	16d	8a	8ff
.	16c	.	.
.	16B-	4b-	16dd
.	16c	.	16ee-
.	[8d	.	16cc
.	.	.	16dd
[4GG	16d]	4r	8b-
.	16d	.	.
.	16c	.	16ee-
.	16B-	.	16b-
=24	=24	=24	=24
4GG]	16A	2r	8cc
.	16B-	.	.
.	[8c	.	8a
4FF#	16c]	.	8d
.	16c	.	.
.	16B-	.	8dd
.	16A	.	.
8GG	8G	4r	16b-
.	.	.	16cc
8FF	8A	.	16a
.	.	.	16b-
8EE	8B-	8r	16g
.	.	.	16a
8E	16A	8g	16b
.	16G	.	16cc#
=25	=25	=25	=25
8D	4.A	16f	8dd
.	.	16g	.
8C	.	16e	8ee
.	.	16f	.
4BB-	.	8d	16ff
.	.	.	16gg
.	8D	8dd	16ff
.	.	.	16gg
4AA	8E	16cc#	8aa
.	.	16dd	.
.	8A	16b	8ee
.	.	16cc#	.
4r	8D	8a	[4ff
.	8F	16dd	.
.	.	16a	.
=26	=26	=26	=26
1r	16G	8b-	4ff]
.	16A	.	.
.	[8B-	8g	.
.	16B-]	8c	2ee
.	16B-	.	.
.	16A	8cc	.
.	16G	.	.
.	16F	16a	.
.	16G	16b-	.
.	[8A	16g	.
.	.	16a	.
.	16A]	8f	[4dd
.	16A	.	.
.	16G	16b-	.
.	16F	16f	.
=27	=27	=27	=27
1r	16E	8g	4dd]
.	16F	.	.
.	[8G	8e	.
.	16G]	8A	4cc#
.	16G	.	.
.	16F	8a	.
.	16E	.	.
.	8D	16f	4dd
.	.	16g	.
.	8F	16e	.
.	.	16f	.
.	[4B-	16d	8r
.	.	16e	.
.	.	16f	8dd
.	.	16g	.
=28	=28	=28	=28
1r	4B-]	16e-	4cc
.	.	16f	.
.	.	16d	.
.	.	16e-	.
.	2A	16c	4ff
.	.	16d	.
.	.	16e-	.
.	.	16f	.
.	.	16d	4b-
.	.	16e-	.
.	.	16c	.
.	.	16d	.
.	[4G	16B-	16r
.	.	16c	16gg
.	.	16d	16ff#
.	.	16e-	16gg
=29	=29	=29	=29
4r	4G]	16c	8a
.	.	16d	.
.	.	16B-	8ee-
.	.	16c	.
8r	4F#	8A	16dd
.	.	.	16cc
8D	.	[8d	16b-
.	.	.	16a
16BB-	4G	16d]	8g
16C	.	16e-	.
16AA	.	16c	8a
16BB-	.	16d	.
8GG	4r	16B-	16b-
.	.	16e-	16cc
8G	.	16d	16b-
.	.	16e-	16cc
=30	=30	=30	=30
16F#	1r	16A	4dd
16G	.	16B-	.
16E	.	16G	.
16F#	.	16A	.
8D	.	2B-	16r
.	.	.	16dd
16G	.	.	16ee-
16D	.	.	16dd
8E-	.	.	16cc
.	.	.	16dd
8C	.	.	[8ee-
8FF	.	[4A	16ee-]
.	.	.	16ee-
8F	.	.	16dd
.	.	.	16cc
=31	=31	=31	=31
16D	1r	4A]	16b-
16E-	.	.	16cc
16C	.	.	[8dd
16D	.	.	.
8BB-	.	2G	16dd]
.	.	.	16dd
16E-	.	.	16cc
16BB-	.	.	16b-
8D	.	.	16a
.	.	.	16b-
8AA	.	.	[8cc
8DD	.	4F#	16cc]
.	.	.	16cc
8D	.	.	16b-
.	.	.	16a
=32	=32	=32	=32
16BB-	1r	8G	8b-
16C	.	.	.
16AA	.	8A	8cc
16BB-	.	.	.
8GG	.	16B-	16dd
.	.	16c	16ee
8G	.	16B-	16dd
.	.	16c	16ee
16F	.	16A	[2ff
16G	.	16B-	.
16E-	.	16G	.
16F	.	16A	.
8D	.	16B-	.
.	.	16c	.
8B-	.	16d	.
.	.	16e-	.
=33	=33	=33	=33
16A	1r	16c	2ff_
16B-	.	16d	.
16G	.	16B-	.
16A	.	16c	.
16F	.	16A	.
16G	.	16B-	.
16E-	.	16c	.
16F	.	16d	.
16D	.	[2B-	16ff]
16E-	.	.	16gg
16C	.	.	16ee-
16D	.	.	16ff
16BB-	.	.	16dd
16B-	.	.	16ee-
16A	.	.	16ff
16B-	.	.	16gg
=34	=34	=34	=34
16G	1r	16B-]	[2ee-
16A	.	16c	.
16F	.	16A	.
16G	.	16B-	.
16E-	.	16G	.
16F	.	16A	.
16D	.	16B-	.
16E-	.	16c	.
16C	.	[2A	16ee-]
16D	.	.	16ff
16BB-	.	.	16dd
16C	.	.	16ee-
16AA	.	.	16cc
16A	.	.	16dd
16G	.	.	16ee-
16A	.	.	16ff
=35	=35	=35	=35
16F	1r	16A]	[2dd
16G	.	16B-	.
16E-	.	16G	.
16F	.	16A	.
16D	.	16F	.
16E-	.	16G	.
16C	.	16A	.
16D	.	16F	.
16BB-	.	8B-	16dd]
16C	.	.	16ee-
16AA	.	8c	16cc
16BB-	.	.	16dd
16GG	.	8d	16b-
16C	.	.	16a
16BB-	.	8e	16g
16C	.	.	16b-
=36	=36	=36	=36
8FF	2r	[2f	16a
.	.	.	16b-
8F	.	.	16g
.	.	.	16a
8G	.	.	16b-
.	.	.	16dd
8A	.	.	16cc
.	.	.	16ee-
8B-	4r	16f]	16dd
.	.	16e-	16cc
8E-	.	16d	16b-
.	.	16e-	16cc
8F	8r	8.c	8.a
8FF	8F	.	.
.	.	16d	16b-
=37	=37	=37	=37
4BB-	16D	8d	8b-
.	16E-	.	.
.	16C	8e-	8cc
.	16D	.	.
4r	8BB-	2f	16dd
.	.	.	16ff
.	8B-	.	16ee-
.	.	.	16dd
2r	16A	.	16cc
.	16B-	.	16dd
.	16G	.	16b-
.	16A	.	16cc
.	8F	8r	8a
.	16B-	8f	[8dd
.	16F	.	.
=38	=38	=38	=38
1r	8G	16e-	4dd]
.	.	16f	.
.	8E-	[8g	.
.	8AA	16g]	2cc
.	.	16g	.
.	8A	16f	.
.	.	16e-	.
.	16F	16d	.
.	16G	16e-	.
.	16E-	[8f	.
.	16F	.	.
.	8D	16f]	[4b-
.	.	16f	.
.	16G	16e-	.
.	16D	16d	.
=39	=39	=39	=39
1r	8E-	16c	4b-]
.	.	16d	.
.	8C	[8e-	.
.	8FF	16e-]	4a
.	.	16e-	.
.	8F	16d	.
.	.	16c	.
.	16D	4B-	8r
.	16E-	.	.
.	16C	.	8f
.	16D	.	.
.	16BB-	4r	8b-
.	16C	.	.
.	16D	.	8b-
.	16E-	.	.
=40	=40	=40	=40
1r	16F	8r	4a
.	16G	.	.
.	16E-	8c	.
.	16F	.	.
.	16D	8f	8b-
.	16E-	.	.
.	16F	8f	8b
.	16G	.	.
.	16C	8e-	8cc
.	16D	.	.
.	16BB-	8e	8g
.	16C	.	.
.	16AA	8f	8cc
.	16BB-	.	.
.	16C	8f#	8cc
.	16D	.	.
=41	=41	=41	=41
1r	16GG	8g	8b-
.	16AA	.	.
.	16FF	8d	8b
.	16GG	.	.
.	16EE	8g	8cc
.	16FF	.	.
.	16GG	8g	8cc#
.	16AA	.	.
.	16DD	8f	8dd
.	16D	.	.
.	16C	8f#	8a
.	16D	.	.
.	16BB	8g	8dd
.	16C	.	.
.	16D	8g#	8dd
.	16E	.	.
=42	=42	=42	=42
1r	8AA	16a	4cc#
.	.	16b-	.
.	8A	16g	.
.	.	16a	.
.	8B-	16f	2dd
.	.	16g	.
.	8D	16a	.
.	.	16b-	.
.	8E	16g	.
.	.	16a	.
.	8G	16f	.
.	.	16g	.
.	8A	16e	4cc#
.	.	16f	.
.	8AA	16g	.
.	.	16a	.
=43	=43	=43	=43
1r	8D	16f	8dd
.	.	16a	.
.	8r	16d	8ff
.	.	16f	.
.	4r	16e	8g
.	.	16g	.
.	.	16c#	8ee
.	.	16e	.
.	2r	16d	16f
.	.	16f	16a
.	.	16A	8dd
.	.	16d	.
.	.	16e	16cc#
.	.	16g	16ee
.	.	16A	8aa
.	.	16c#	.
=44	=44	=44	=44
1r	1r	16d	16ff
.	.	16f	16gg
.	.	16A	16ee
.	.	16d	16ff
.	.	16F	16dd
.	.	16A	16ff
.	.	16D	16ee
.	.	16F	16dd
.	.	16AA	16cc#
.	.	16C#	16dd
.	.	16E	16b
.	.	16G	16cc#
.	.	16F	8a
.	.	16A	.
.	.	16D	16dd
.	.	16F	16a
=45	=45	=45	=45
1r	1r	16GG	8b-
.	.	16BB-	.
.	.	16D	8g
.	.	16F	.
.	.	16E	8c
.	.	16G	.
.	.	16C	8cc
.	.	16E	.
.	.	16FF	16a
.	.	16AA	16b-
.	.	16C	16g
.	.	16E	16a
.	.	16D	8f
.	.	16F	.
.	.	16BB-	16b-
.	.	16D	16f
=46	=46	=46	=46
1r	1r	16EE	8g
.	.	16GG	.
.	.	16BB-	8e
.	.	16D	.
.	.	16C#	8A
.	.	16E	.
.	.	16AA	8a
.	.	16C#	.
.	.	8DD	16f
.	.	.	16g
.	.	8EE	16e
.	.	.	16f
.	.	8FF	16d
.	.	.	16f
.	.	8DD	16a
.	.	.	16dd
=47	=47	=47	=47
1r	1r	8AA	16cc#
.	.	.	16dd
.	.	8BB	16b
.	.	.	16cc#
.	.	8C#	16a
.	.	.	16cc#
.	.	8AA	16ee
.	.	.	16gg
.	.	8D	16ff
.	.	.	16gg
.	.	8E	16ee
.	.	.	16ff
.	.	8F	16dd
.	.	.	16ff
.	.	8D	16aa
.	.	.	16ccc
=48	=48	=48	=48
1r	1r	8G	16bb-
.	.	.	16ccc
.	.	8A	16aa
.	.	.	16bb-
.	.	8B-	16gg
.	.	.	16aa
.	.	8G	16ff
.	.	.	16gg
.	.	8c	16ee
.	.	.	16ff
.	.	8d	16dd
.	.	.	16ee
.	.	8e	16cc
.	.	.	16ee
.	.	8c	16gg
.	.	.	16bb-
=49	=49	=49	=49
1r	1r	8f	16aa
.	.	.	16bb-
.	.	8g	16gg
.	.	.	16aa
.	.	8a	16ff
.	.	.	16gg
.	.	8f	16ee
.	.	.	16ff
.	.	16b-	16dd
.	.	16cc	16ee
.	.	16a	16cc
.	.	16b-	16dd
.	.	16g	16b-
.	.	16a	16dd
.	.	16f	16ff
.	.	16g	16aa
=50	=50	=50	=50
1r	1r	16e	16gg
.	.	16f	16aa
.	.	16d	16ff
.	.	16e	16gg
.	.	16c#	16ee
.	.	16d	16ff
.	.	16B	16dd
.	.	16c#	16ee
.	.	16A	16cc#
.	.	16B-	16dd
.	.	16G	16b
.	.	16A	16cc#
.	.	16F	16a
.	.	16G	16cc#
.	.	8A	16ee
.	.	.	16gg
=51	=51	=51	=51
1r	1r	16F	16dd
.	.	16G	16ff
.	.	16E	16a
.	.	16F	16dd
.	.	8D	16f
.	.	.	16a
.	.	8d	16d
.	.	.	16dd
.	.	16c#	16a
.	.	16d	16cc#
.	.	16B	16ee
.	.	16c#	16gg
.	.	8A	16ff
.	.	.	16aa
.	.	16d	16dd
.	.	16A	16ff
=52	=52	=52	=52
1r	1r	8B-	16g
.	.	.	16b-
.	.	8G	16dd
.	.	.	16ff
.	.	8C	16ee
.	.	.	16gg
.	.	8c	16cc
.	.	.	16ee
.	.	16A	16f
.	.	16B-	16a
.	.	16G	16cc
.	.	16A	16ee
.	.	8F	16dd
.	.	.	16ff
.	.	16B-	16b-
.	.	16F	16dd
=53	=53	=53	=53
1r	1r	8G	16e
.	.	.	16g
.	.	8E	16b-
.	.	.	16dd
.	.	8AA	16cc#
.	.	.	16ee
.	.	8A	16a
.	.	.	16cc#
.	.	16F	16dd
.	.	16G	16ff
.	.	16E	16a
.	.	16F	16dd
.	.	8D	16f
.	.	.	16a
.	.	8F	16d
.	.	.	16a
=54	=54	=54	=54
2r	1r	16G	16b-
.	.	16B-	16cc
.	.	16D	16a
.	.	16G	16b-
.	.	16BB-	8g
.	.	16D	.
.	.	16GG	8b-
.	.	16D	.
4r	.	16E	16cc
.	.	16F	16ee
.	.	16D	16g
.	.	16E	16cc
8r	.	8C	16e
.	.	.	16g
8C	.	8E	16c
.	.	.	16g
=55	=55	=55	=55
16AA	1r	8F	8a
16BB-	.	.	.
16GG	.	8G	8b-
16AA	.	.	.
8FF	.	16A	8cc
.	.	16B-	.
8F	.	16A	8dd
.	.	16B-	.
16E	.	16c	8g
16F	.	16d	.
16D	.	16B-	[8gg
16E	.	16c	.
8C	.	8A	16gg]
.	.	.	16ee
16F	.	[8a	16dd
16C	.	.	16cc
=56	=56	=56	=56
8D	1r	4a]	16bb-
.	.	.	16cc
8BB-	.	.	[8dd
8EE	.	2g	16dd]
.	.	.	16dd
8E	.	.	16cc
.	.	.	16b-
16C	.	.	16aa
16D	.	.	16b-
16BB-	.	.	[8cc
16C	.	.	.
8AA	.	[4f	16cc]
.	.	.	16cc
16D	.	.	16b-
16AA	.	.	16a
=57	=57	=57	=57
8BB-	1r	4f]	16gg
.	.	.	16a
8GG	.	.	[8b-
8CC	.	4e	16b-]
.	.	.	16b-
8C	.	.	16a
.	.	.	16g
16AA	.	8r	4f
16BB-	.	.	.
16GG	.	8c	.
16AA	.	.	.
16FF	.	8f	4r
16AA	.	.	.
16GG	.	8e	.
16BB-	.	.	.
=58	=58	=58	=58
16AA	1r	4f	8r
16BB-	.	.	.
16GG	.	.	8cc
16AA	.	.	.
16FF	.	8r	8ff
16AA	.	.	.
16GG	.	8B-	8ee
16BB-	.	.	.
16AA	.	8c	16ff
16C	.	.	16ee-
16BB	.	16G	16dd
16D	.	16g	16ff
16C	.	16G	16ee-
16E-	.	16g	16cc
16D	.	16G	16b
16F	.	16g	16dd
=59	=59	=59	=59
16E-	1r	8G	8cc
16F	.	.	.
16D	.	8g	8r
16E-	.	.	.
16C	.	8cc	4r
16E-	.	.	.
16D	.	8b	.
16F	.	.	.
16E-	.	4cc	8r
16F	.	.	.
16D	.	.	8gg
16E-	.	.	.
16C	.	8r	8ccc
16E-	.	.	.
16D	.	8f	8bb
16F	.	.	.
=60	=60	=60	=60
16E	1r	8g	16ccc
16G	.	.	16bb-
16F#	.	16d	16aa
16A	.	16dd	16ccc
16G	.	16d	16bb-
16B-	.	16dd	16gg
16A	.	16d	16ff#
16c	.	16dd	16aa
16B-	.	8d	8gg
16c	.	.	.
16A	.	8f#	8dd
16B-	.	.	.
16G	.	8b-	8gg
16B-	.	.	.
16A	.	8cc	8ff#
16c	.	.	.
=61	=61	=61	=61
16B-	1r	8dd	8gg
16c	.	.	.
16A	.	16cc	16ff#
16c	.	16ee-	16aa
16B-	.	16dd	16gg
16c	.	16ee-	16aa
16A	.	16cc	16ff
16B-	.	16dd	16gg
16G	.	16b-	16ee-
16A	.	16cc	16ff
16F#	.	16a	16dd
16A	.	16cc	16ff
16G	.	16b-	16ee-
16A	.	16cc	16ff
16F	.	16a	16dd
16G	.	16b-	16ee-
=62	=62	=62	=62
16E-	1r	16g	16cc
16F	.	16a	16dd
16D	.	16f	16b-
16F	.	16a	16dd
16E-	.	16g	16cc
16F	.	16a	16dd
16D	.	16f	16b-
16E-	.	16g	16cc
16C	.	16e-	16a
16D	.	16f	16b-
16BB-	.	16d	16g
16D	.	16f	16b-
16C	.	16e-	16a
16D	.	16f	16b-
16BB-	.	16d	16g
16C	.	16e-	16a
=63	=63	=63	=63
16AA	1r	16c	16f#
16BB-	.	16d	16g
16GG	.	16B-	16e
16AA	.	16c	16f#
8FF#	.	16A	8d
.	.	16c	.
8DD	.	16F#	8dd
.	.	16A	.
8GG	.	16G	16b-
.	.	16B-	16cc
8FF	.	16D	16a
.	.	16G	16b-
4EE-	.	16BB-	8g
.	.	16D	.
.	.	16GG	8gg
.	.	16C	.
=64	=64	=64	=64
[1DD	1r	16D	16ff#
.	.	16AA	16gg
.	.	16E	16ee
.	.	16AA	16ff#
.	.	16F#	16dd
.	.	16G	16bb-
.	.	16E	16cc
.	.	16F#	16aa
.	.	16G	16b-
.	.	16D	16cc
.	.	16A	16a
.	.	16D	16b-
.	.	16B-	16g
.	.	16D	16b-
.	.	16c	16ee-
.	.	16D	16g
=65	=65	=65	=65
1DD_	4r	8.d	16f#
.	.	.	16a
.	.	.	[8dd
.	.	16e	.
.	8r	4f#	16dd]
.	.	.	16cc
.	8d	.	16b-
.	.	.	16a
.	16B-	8.g	16b-
.	16c	.	16dd
.	16A	.	[8gg
.	16B-	16a	.
.	8G	8.b-	16gg]
.	.	.	16cc#
.	8g	.	8ee
.	.	16c#	.
=66	=66	=66	=66
8DD]	16f#	4d	4dd 4a
.	16g	.	.
8FF#	16e	.	.
.	16f#	.	.
8GG	8d	8r	2bb-
8BB-	16g	8dd	.
.	16d	.	.
8C	8e-	16gg	.
.	.	16ff	.
8E-	8c	16ee-	.
.	.	16dd	.
8F	8F	16cc	[4aa
.	.	16ee-	.
8AA	8f	16dd	.
.	.	16cc	.
=67	=67	=67	=67
8BB-	16d	4b-	4aa]
.	16e-	.	.
8D	16c	.	.
.	16d	.	.
8E-	8B-	8r	2gg
8GG	16e-	8b-	.
.	16B-	.	.
8AA	8c	16ee-	.
.	.	16dd	.
8C	8A	16cc	.
.	.	16b-	.
8D	8D	16a	4ff#
.	.	16cc	.
8DD	8d	16b-	.
.	.	16a	.
=68	=68	=68	=68
4GG	16B-	4g	8gg
.	16c	.	.
.	16A	.	8dd
.	16B-	.	.
8r	16G	4r	8gg
.	16B-	.	.
8DD	16A	.	8ff#
.	16c	.	.
4GG	16B-	8r	8gg
.	16c	.	.
.	16A	8d	8r
.	16B-	.	.
8r	16G	8g	4r
.	16B-	.	.
8DD	16A	8f#	.
.	16c	.	.
=69	=69	=69	=69
8GG	16B-	8g	8r
.	16c	.	.
8D	16A	8f#	8dd
.	16B-	.	.
8G	16G	16b-	8dd
.	16B-	16g	.
8F#	16A	16a	8dd
.	16c	16d	.
8G	16B-	4g	8dd
.	16d	.	.
8E-	16c	.	8ee-
.	16e-	.	.
8BB	16d	8g	8ff
.	16f	.	.
8GG	16e-	8b	8gg
.	16d	.	.
=70	=70	=70	=70
4C	16c	4g	8ee-
.	16d	.	.
.	16B	.	8gg
.	16d	.	.
8r	16c	4r	8ccc
.	16e-	.	.
8G	16d	.	8bb
.	16f	.	.
4C	16e-	8r	8ccc
.	16f	.	.
.	16d	8g	8r
.	16e-	.	.
8r	16c	8cc	8r
.	16e-	.	.
8GG	16d	8b	8r
.	16f	.	.
=71	=71	=71	=71
8C	16e-	8cc	8r
.	16f	.	.
8G	16d	8b	8gg
.	16e-	.	.
8c	16c	16ee-	8gg
.	16e-	16cc	.
8B	16d	16dd	8gg
.	16f	16g	.
8c	16e-	16cc	4gg
.	16d	16b	.
8A-	16e-	16cc	.
.	16g	16ee-	.
8F	16a-	16dd	4r
.	16g	16ee-	.
8D	16f	16dd	.
.	16e-	16cc	.
=72	=72	=72	=72
8G	16d	16b	4r
.	16c	16a	.
8D	16d	16b	.
.	16e-	16cc	.
8BB	16f	16dd	8r
.	16d	16cc	.
8GG	[8g	16dd	8gg
.	.	16b	.
8C	4g_	8cc	16ee-
.	.	.	16ff
8GG	.	8b	16dd
.	.	.	16ee-
8EE-	16g]	8cc	8cc
.	16g	.	.
8CC	16f	8gg	8ccc
.	16e-	.	.
=73	=73	=73	=73
8GG	16d	8gg	16bb
.	16e-	.	16ccc
8G	16c	8r	16aa
.	16d	.	16bb
8C	2e-	4r	8gg
8E-	.	.	16ccc
.	.	.	16gg
16F	.	2r	8aa-
16C	.	.	.
[8A-	.	.	8ff
16A-]	[4d	.	8b-
16BB-	.	.	.
16D	.	.	8bb-
16BB-	.	.	.
=74	=74	=74	=74
16E-	4d]	1r	16gg
16BB-	.	.	16aa-
[8G	.	.	16ff
.	.	.	16gg
16G]	2c	.	8ee-
16AA-	.	.	.
16C	.	.	16aa-
16AA-	.	.	16ee-
16D	.	.	8ff
16AA-	.	.	.
[8F	.	.	8dd
16F]	4B	.	8g
16GG	.	.	.
16BB	.	.	8gg
16GG	.	.	.
=75	=75	=75	=75
16C	4c	1r	16ee-
16GG	.	.	16ff
16D	.	.	16dd
16GG	.	.	16ee-
16E-	16r	.	16cc
16GG	16g	.	16ee-
16F	16f	.	16dd
16GG	16e-	.	16cc
16G	[4d	.	16b
16GG	.	.	16cc
16A	.	.	16a
16GG	.	.	16b
16B	16d]	.	16g
16GG	16a-	.	16ff
16G	16g	.	16ee-
16GG	16f	.	16dd
=76	=76	=76	=76
4c	16e-	1r	16cc
.	16f	.	16g
.	16d	.	16dd
.	16e-	.	16g
4r	16c	.	16ee-
.	16e-	.	16g
.	16d	.	16ff
.	16c	.	16g
4r	16B	.	16gg
.	16c	.	16g
.	16A	.	16aa
.	16B	.	16g
16r	16G	.	8bb
16G	16B	.	.
16F	16A	.	8gg
16G	16B	.	.
=77	=77	=77	=77
16E-	16c	1r	[1ggT
16F	16G	.	.
16D	16d	.	.
16E-	16G	.	.
16C	16e-	.	.
16E-	16G	.	.
16D	16f	.	.
16C	16G	.	.
16BB	16g	.	.
16C	16G	.	.
16AA	16a	.	.
16BB	16G	.	.
8GG	16b	.	.
.	16g	.	.
8G	16a	.	.
.	16b	.	.
=78	=78	=78	=78
8E-	[4cc	1r	16gg]
.	.	.	16ee-
8C	.	.	16ff
.	.	.	16gg
8F	16cc]	.	[4aa-
.	16f	.	.
8E-	16g	.	.
.	16a-	.	.
8D	[4b-	.	16aa-]
.	.	.	16dd
8BB-	.	.	16ee-
.	.	.	16ff
8E-	16b-]	.	[4gg
.	16e-	.	.
8D	16f	.	.
.	16g	.	.
=79	=79	=79	=79
8C	[2a-	2r	16gg]
.	.	.	16bb-
8BB-	.	.	16aa-
.	.	.	16gg
8C	.	.	16ff
.	.	.	16ee-
8AA-	.	.	16dd
.	.	.	16ee-
4BB-	16a-]	4r	8dd
.	16cc	.	.
.	16b-	.	8ff
.	16a-	.	.
8r	16g	8r	8b-
.	16a-	.	.
8BB-	16f	8b-	8dd
.	16g	.	.
=80	=80	=80	=80
4EE-	16e-	16g	[4ee-
.	16f	16a-	.
.	16d	16f	.
.	16e-	16g	.
4r	8c	8e-	16ee-]
.	.	.	16ff
.	8f	8ee-	16gg
.	.	.	16aa
2r	16B-	16dd	2bb-
.	16c	16ee-	.
.	16A-	16cc	.
.	16B-	16dd	.
.	[4G	8b-	.
.	.	16ee-	.
.	.	16b-	.
=81	=81	=81	=81
1r	4G]	8cc	16r
.	.	.	16ee-
.	.	8a-	16ff
.	.	.	16gg
.	2F	8d	16aa-
.	.	.	16gg
.	.	8dd	16ff
.	.	.	16aa-
.	.	16b-	2gg
.	.	16cc	.
.	.	16a-	.
.	.	16b-	.
.	[4E-	8g	.
.	.	16cc	.
.	.	16g	.
=82	=82	=82	=82
2r	4E-]	8a-	16r
.	.	.	16cc
.	.	8f	16dd
.	.	.	16ee-
.	4D	8B-	16ff
.	.	.	16ee-
.	.	8a-	16dd
.	.	.	16ff
8r	8E-	16g	8b-
.	.	16a-	.
8BB-	8F	16f	8dd
.	.	16g	.
8E-	8G	16e-	8ee-
.	.	16g	.
8D	8B-	16f	8r
.	.	16a-	.
=83	=83	=83	=83
4E-	8B-	16g	8r
.	.	16a-	.
.	8r	16f	8b-
.	.	16g	.
4r	4r	16e-	8ee-
.	.	16g	.
.	.	16f	8dd
.	.	16a-	.
8r	8r	16g	8ee-
.	.	16a-	.
8BB-	8d	16f	8ff
.	.	16g	.
8E-	8B-	16e-	8gg
.	.	16g	.
8D	8B-	16f	8r
.	.	16a-	.
=84	=84	=84	=84
8E-	8B-	16g	2r
.	.	16b-	.
8F	8e-	16a	.
.	.	16cc	.
8G	8d	16b-	.
.	.	16dd	.
8A	8f	16cc	.
.	.	16ee-	.
8B-	8f	16dd	8r
.	.	16ee-	.
8r	8r	16cc	8ff
.	.	16dd	.
4r	4r	16b-	8bb-
.	.	16dd	.
.	.	16cc	8aa
.	.	16ee-	.
=85	=85	=85	=85
2r	8r	16dd	8bb-
.	.	16ee-	.
.	8F	16cc	8r
.	.	16dd	.
.	8B-	16b-	4r
.	.	16dd	.
.	8A	16cc	.
.	.	16ee-	.
8r	8B-	16dd	2r
.	.	16ee-	.
8FF	8A	16cc	.
.	.	16dd	.
8BB-	8d	16b-	.
.	.	16dd	.
8AA	8f	16cc	.
.	.	16ee-	.
=86	=86	=86	=86
8BB-	4B-	16dd	2r
.	.	16ff	.
8C	.	16ee	.
.	.	16gg	.
8D	8r	16ff	.
.	.	16aa-	.
8E	8c	16gg	.
.	.	16bb-	.
4F	8f	16aa-	[2ccc
.	.	16bb-	.
.	8g	16gg	.
.	.	16aa-	.
4r	8a-	16ff	.
.	.	16gg	.
.	8f	16ee-	.
.	.	16ff	.
=87	=87	=87	=87
8BB-	16b-	2dd-	4ccc]
.	16cc	.	.
8C	16a-	.	.
.	16b-	.	.
8D-	16g	.	8bb-
.	16a-	.	.
8BB-	16f	.	8aa-
.	16g	.	.
4E-	8e-	16gg	8gg
.	.	16aa-	.
.	8f	16ff	8aa-
.	.	16gg	.
4r	8g	16ee-	[4bb-
.	.	16ff	.
.	8e-	16dd-	.
.	.	16ee-	.
=88	=88	=88	=88
8AA-	16a-	2cc	4bb-]
.	16b-	.	.
8BB-	16g	.	.
.	16a-	.	.
8C	16f	.	8aa-
.	16g	.	.
8AA-	16e-	.	8gg
.	16f	.	.
4D-	8d-	16ff	8ff
.	.	16gg	.
.	8e-	16ee-	8gg
.	.	16ff	.
4r	8f	16dd-	[4aa-
.	.	16ee-	.
.	8d-	16cc	.
.	.	16dd-	.
=89	=89	=89	=89
16G	8g	4b	4aa-]
16A-	.	.	.
16F	8d	.	.
16G	.	.	.
16E-	8e-	8cc	8gg
16F	.	.	.
16D	8B	8dd	8ff
16E-	.	.	.
4C	8c	4g	16ee-
.	.	.	16ff
.	8G	.	16dd
.	.	.	16ee-
8r	8c	8r	16cc
.	.	.	16ee-
8GG	8B	8g	16dd
.	.	.	16ff
=90	=90	=90	=90
4C	4c	8g	16ee-
.	.	.	16ff
.	.	8g	16dd
.	.	.	16ee-
8r	8r	8cc	16cc
.	.	.	16ee-
8GG	8g	8b	16dd
.	.	.	16ff
8CC	8g	8cc	16ee-
.	.	.	16ff
8GG	8f	8b	16dd
.	.	.	16ee-
8C	8e-	8g	16cc
.	.	.	16ee-
8BB	8G	8g	16dd
.	.	.	16ff
=91	=91	=91	=91
8C	4c	4g	16ee
.	.	.	16gg
8D	.	.	16ff#
.	.	.	16aa
8E	8r	8r	16gg
.	.	.	16bb-
8F#	8A	8d	16aa
.	.	.	16ccc
4G	8G	8d	16bb-
.	.	.	16ccc
.	8d	8r	16aa
.	.	.	16bb-
8r	8g	8r	16gg
.	.	.	16bb-
8D	8f#	8dd	16aa
.	.	.	16ccc
=92	=92	=92	=92
4G	4g	8dd	16bb-
.	.	.	16ccc
.	.	8dd	16aa
.	.	.	16bb-
8r	8r	8gg	16gg
.	.	.	16bb-
8D	8dd	8ff#	16aa
.	.	.	16ccc
8GG	8dd	8gg	16bb-
.	.	.	16ccc
8D	8cc	8ff#	16aa
.	.	.	16bb-
8G	8b-	8dd	16gg
.	.	.	16bb-
8F#	8d	8dd	16aa
.	.	.	16ccc
=93	=93	=93	=93
8G	4g	4dd	16bb-
.	.	.	16ccc
8A	.	.	16bb-
.	.	.	16aa
8B-	8r	8r	16gg
.	.	.	16bb-
8c	16cc	8ee-	16aa
.	16b-	.	16gg
8d	16a	8dd	8ff#
.	16g	.	.
8D	16f#	8a	8dd
.	16e	.	.
4r	16d	4r	8r
.	16c	.	.
.	16B-	.	8dd
.	16A	.	.
=94	=94	=94	=94
1r	16G	1r	16b-
.	16F	.	16cc
.	16E-	.	16a
.	16D	.	16b-
.	16C	.	8g
.	16BB-	.	.
.	16AA	.	8gg
.	16GG	.	.
.	8D	.	16ff#
.	.	.	16gg
.	8DD	.	16ee
.	.	.	16ff#
.	16r	.	8dd
.	16G	.	.
.	16A	.	16gg
.	16B-	.	16dd
=95	=95	=95	=95
1r	16C	1r	8ee-
.	16E-	.	.
.	16G	.	8cc
.	16B-	.	.
.	16A	.	8f
.	16c	.	.
.	16F	.	8ff
.	16A	.	.
.	16BB-	.	16dd
.	16D	.	16ee-
.	16F	.	16cc
.	16A	.	16dd
.	16G	.	8b-
.	16B-	.	.
.	16E-	.	16ee-
.	16G	.	16b-
=96	=96	=96	=96
1r	16AA	1r	8cc
.	16C	.	.
.	16E-	.	8a
.	16G	.	.
.	16F#	.	8d
.	16A	.	.
.	16D	.	8dd
.	16F#	.	.
.	8GG	.	16b-
.	.	.	16cc
.	8AA	.	16a
.	.	.	16b-
.	8BB-	.	16g
.	.	.	16b-
.	8GG	.	16a
.	.	.	16g
=97	=97	=97	=97
1r	8D	1r	16f#
.	.	.	16g
.	8E	.	16e
.	.	.	16f#
.	8F#	.	16d
.	.	.	16f#
.	8D	.	16a
.	.	.	16cc
.	8G	.	16b-
.	.	.	16cc
.	8A	.	16a
.	.	.	16b-
.	8B-	.	16g
.	.	.	16b-
.	8G	.	16dd
.	.	.	16ff
=98	=98	=98	=98
1r	8c	1r	16ee-
.	.	.	16ff
.	8d	.	16dd
.	.	.	16ee-
.	8e-	.	16cc
.	.	.	16dd
.	8c	.	16b-
.	.	.	16cc
.	8F	.	16a
.	.	.	16b-
.	8G	.	16g
.	.	.	16a
.	8A	.	16f
.	.	.	16a
.	8F	.	16cc
.	.	.	16ee-
=99	=99	=99	=99
1r	8B-	1r	16dd
.	.	.	16ee-
.	8c	.	16cc
.	.	.	16dd
.	8d	.	16b-
.	.	.	16cc
.	8B-	.	16a
.	.	.	16b-
.	16e-	.	16g
.	16f	.	16a
.	16d	.	16f
.	16e-	.	16g
.	16c	.	16e-
.	16d	.	16g
.	16B-	.	16b-
.	16c	.	16dd
=100	=100	=100	=100
1r	16A	1r	16cc
.	16B-	.	16dd
.	16G	.	16b-
.	16A	.	16cc
.	16F#	.	16a
.	16G	.	16b-
.	16E	.	16g
.	16F#	.	16a
.	16D	.	16f#
.	16E-	.	16g
.	16C	.	16e
.	16D	.	16f#
.	16BB-	.	16d
.	16C	.	16f#
.	8D	.	16a
.	.	.	16cc
=101	=101	=101	=101
1r	16BB-	1r	16g
.	16C	.	16b-
.	16AA	.	16dd
.	16BB-	.	16gg
.	8GG	.	16b-
.	.	.	16dd
.	8G	.	16g
.	.	.	16b-
.	16F#	.	16d
.	16G	.	16f#
.	16E	.	16a
.	16F#	.	16cc
.	8D	.	16b-
.	.	.	16dd
.	16G	.	16g
.	16D	.	16b-
=102	=102	=102	=102
1r	8E-	1r	16c
.	.	.	16e-
.	8C	.	16g
.	.	.	16b-
.	8FF	.	16a
.	.	.	16cc
.	8F	.	16f
.	.	.	16a
.	16D	.	16B-
.	16E-	.	16d
.	16C	.	16f
.	16D	.	16a
.	8BB-	.	16g
.	.	.	16b-
.	16E-	.	16e-
.	16BB-	.	16g
=103	=103	=103	=103
1r	8C	4r	16A
.	.	.	16c
.	8AA	.	16e-
.	.	.	16g
.	8DD	8r	16f#
.	.	.	16a
.	8D	8d	16d
.	.	.	16f#
.	8G	16B-	8g
.	.	16c	.
.	8F	16A	8a
.	.	16B-	.
.	4E-	8G	16b-
.	.	.	16cc
.	.	8g	16b-
.	.	.	16cc
=104	=104	=104	=104
1r	4D	16f#	4dd
.	.	16g	.
.	.	16e	.
.	.	16f#	.
.	2B-	8d	8r
.	.	16g	8dd
.	.	16d	.
.	.	8e-	16cc
.	.	.	16dd
.	.	8c	[8ee-
.	[4A	8F	16ee-]
.	.	.	16ee-
.	.	8f	16dd
.	.	.	16cc
=105	=105	=105	=105
1r	4A]	16d	16b-
.	.	16e-	16cc
.	.	16c	[8dd
.	.	16d	.
.	2G	8B-	16dd]
.	.	.	16dd
.	.	16e-	16cc
.	.	16B-	16b-
.	.	8c	16a
.	.	.	16b-
.	.	8A	[8cc
.	4F#	8D	16cc]
.	.	.	16cc
.	.	16d	16b-
.	.	16c	16a
=106	=106	=106	=106
1r	4G	16B-	8g
.	.	16c	.
.	.	16A	8a
.	.	16B-	.
.	4r	16G	8b-
.	.	16B-	.
.	.	16A	8cc
.	.	16G	.
.	4r	16F#	[2dd
.	.	16G	.
.	.	16E	.
.	.	16F#	.
.	16r	8D	.
.	16d	.	.
.	16c	8f#	.
.	16d	.	.
=107	=107	=107	=107
1r	16B-	[2g	16dd]
.	16c	.	16ee-
.	16A	.	16cc
.	16B-	.	16dd
.	16G	.	16b-
.	16A	.	16cc
.	16F	.	16dd
.	16G	.	16ee-
.	16E-	16g]	[2cc
.	16F	16a	.
.	16D	16f	.
.	16E-	16g	.
.	16C	16e-	.
.	16c	16f	.
.	16B-	16g	.
.	16c	16a	.
=108	=108	=108	=108
1r	16A	[2f	16cc]
.	16B-	.	16dd
.	16G	.	16b-
.	16A	.	16cc
.	16F	.	16a
.	16G	.	16b-
.	16E-	.	16cc
.	16F	.	16dd
.	16D	16f]	[2b-
.	16E-	16g	.
.	16C	16e-	.
.	16D	16f	.
.	16BB-	16d	.
.	16B-	16e	.
.	16A	16f#	.
.	16B-	16g	.
=109	=109	=109	=109
1r	16G	2c#	16b-]
.	16A	.	16cc
.	16F#	.	16a
.	16G	.	16b-
.	8E	.	16g
.	.	.	16b-
.	8A	.	16a
.	.	.	16g
.	4D	8d	16f#
.	.	.	16g
.	.	8c	16e
.	.	.	16f#
.	8E	8B-	16g
.	.	.	16b-
.	8F#	[8d	16a
.	.	.	16cc
=110	=110	=110	=110
4r	8G	16d]	16b-
.	.	16c	16a
.	8C	16B-	16g
.	.	16c	16a
8r	4D	8.A	8.f#
8D	.	.	.
.	.	16G	16g
16BB-	8D	8G	8g
16C	.	.	.
16AA	8r	8r	8r
16BB-	.	.	.
8GG	8r	8r	8r
8G	8g	8b-	8ee-
=111	=111	=111	=111
16F#	4d	4a	4dd
16G	.	.	.
16E	.	.	.
16F#	.	.	.
8D	8r	8r	8r
16G	8d	8b-	8dd
16D	.	.	.
8E-	2c	[4b-	16gg
.	.	.	16ff
8C	.	.	16ee-
.	.	.	16dd
8FF	.	16b-]	8cc
.	.	16b-	.
8F	.	16a	16dd
.	.	16g	16ee-
=112	=112	=112	=112
16D	2B-	[4a	16ff
16E-	.	.	16gg
16C	.	.	16ee-
16D	.	.	16ff
8BB-	.	16a]	8dd
.	.	16a	.
16E-	.	16g	8b-
16BB-	.	16f#	.
8C	2A	[4g	16ee-
.	.	.	16dd
8AA	.	.	16cc
.	.	.	16b-
8DD	.	16g]	8a
.	.	16g	.
8D	.	16f#	16b-
.	.	16e	16cc
=113	=113	=113	=113
16BB-	8B-	8d	16dd
16C	.	.	16ee-
16AA	8c	8f#	16cc
16BB-	.	.	16dd
16GG	8d	8g	8b-
16BB-	.	.	.
16AA	8c	8e-	8ff#
16C	.	.	.
16BB-	8G	8d	8gg
16C	.	.	.
16AA	8A	8f#	8cc
16BB-	.	.	.
16GG	8d	8g	8b-
16BB-	.	.	.
16AA	8c	8e-	8ff#
16C	.	.	.
=114	=114	=114	=114
16BB-	8G	8d	8gg
16C	.	.	.
16AA	8A	8f#	8cc
16BB-	.	.	.
16GG	8d	8g	8b-
16BB-	.	.	.
16AA	8c	8e-	8ff#
16C	.	.	.
16BB-	8G	8d	8gg
16D	.	.	.
16C	8c	8e-	8aa 8cc
16E-	.	.	.
8D	8d	8B-	8dd 8b-
8DD	8A	8d	8ff# 8a 8cc 8dd
=115	=115	=115	=115
1GG	1G	1d	1gg 1dd 1b 1g
==	==	==	==
*-	*-	*-	*-
